X:1
T:Beautiful Isle of Somewhere
T:Beautiful Isle of Somewhere
T:John Sylvester Fearis
T:Jessie Brown Pounds, 1897
T:Public Domain Courtesy of the Cyber Hymnal™
C:John Sylvester Fearis
Z:Public Domain
Z:Courtesy of the Cyber Hymnal™
%%score ( 1 2 ) ( 3 4 )
L:1/8
Q:1/4=105
M:6/8
K:A
V:1 treble 
V:2 treble 
V:3 bass 
V:4 bass 
V:1
 [Ec][DB][CA] [CE]2 [CA] | [DA]3 [DG]3 | [Ed][Ec][EB] [DF]2 [DG] ([CF]3 [CE]3) | %3
w: 1.~Some- where the sun is|shin- ing,|Some- where the song- birds dwell; *|
w: 2.~Some- where the day is|long- er,|Some- where the task is done; *|
w: 3.~Some- where the load is|lift- ed,|Close by an o- pen door; *|
 [Ec][DB][CA] [CE]2 [EA] | [EG]3 [EB]3 | [^DB][Dc][DB] (AG)[DF] | E6 ||"^Refrain" [DB]3 [DE]3 | %8
w: Hush, then, thy sad re-|pin- ing,|God lives, and all * is|well.||
w: Some- where the heart is|strong- er,|Some- where the guer- * don|won.|Some- where,|
w: Some- where the clouds are|rift- ed,|Some- where the an- * gels|sing.||
 [CA]3 [CE]3 | [CA][CA][CA] (AG)[=DA] | (B2 c) !fermata![Ed]3 | [Ec][Fd][Ec] [EB]2 [EB]/[EB]/ | %12
w: ||||
w: some- where,|Beau- ti- ful Isle * of|Some- * where!|Land of the true, where we|
w: ||||
 [Ee]2 [=GA] !fermata![Fd]3 | [Ec][EB][EA] (EA)[Ec] | [DB]3 [CA]3 |] %15
w: |||
w: live a- new,|Beau- ti- ful Isle * of|Some- where!|
w: |||
V:2
 x6 | x6 | x12 | x6 | x6 | x3 ^D2 x | E6 || x6 | x6 | x3 ^D2 x | E6 | x6 | x6 | x3 C2 x | x6 |] %15
V:3
 [A,,A,][A,,F,][A,,E,] [A,,A,]2 [A,,E,] | [B,,E,]3 [B,,E,]3 | %2
 [E,B,][E,A,][E,G,] [E,B,]2 [E,B,] [A,,A,]3- [A,,A,]3 | [A,,A,][A,,F,][A,,E,] [A,,A,]2 [A,,C] | %4
 [B,,B,]3 [B,,G,]3 | [B,,F,][B,,F,][B,,F,] [B,,B,]2 [B,,A,] | [E,G,]6 || %7
 ([E,G,]2 [E,G,]) ([E,G,][F,A,][A,C]) | (A,[E,A,][C,A,]) [A,,A,]3 | %9
 [F,A,][F,A,][F,A,] [B,,B,]2 [B,,B,] | (G,2 A,) !fermata![E,B,]3 | A,A,A, [E,G,]2 [D,G,]/[D,G,]/ | %12
 [C,A,]2 [C,A,] !fermata![D,A,]3 | [E,A,][E,D][E,C] [E,A,]2 [E,A,] | [E,G,]3 [A,,A,]3 |] %15
V:4
 x6 | x6 | x12 | x6 | x6 | x6 | x6 || x6 | x6 | x6 | E,3 x3 | x6 | x6 | x6 | x6 |] %15

